; generated by Slic3r 1.1.7 on 2016-11-22 at 17:19:04

; perimeters extrusion width = 0.45mm
; infill extrusion width = 0.40mm
; solid infill extrusion width = 0.40mm
; top infill extrusion width = 0.40mm

G21 ; set units to millimeters
M107 ; disable fan
M104 S220 ; set temperature
G90 ; Set absolute coordinates
G28; Home all axes

M109 S220 ; wait for temperature to be reached
G90 ; use absolute coordinates
G92 E0 ; reset extrusion distance
M82 ; use absolute distances for extrusion
G1 Z0.400 F9000.000 ; move to next layer (0)
G1 F2400.000 E-4.00000 ; retract
G92 E0 ; reset extrusion distance
G1 X48.926 Y50.536 F9000.000 ; move to first skirt point
G1 E4.00000 F2400.000 ; compensate retraction
G1 X50.645 Y49.253 E4.14267 F1680.000 ; skirt
G1 X53.194 Y48.663 E4.31671 ; skirt
G1 X154.806 Y48.663 E11.07597 ; skirt
G1 X156.914 Y49.060 E11.21864 ; skirt
G1 X158.733 Y50.195 E11.36131 F1680.000 ; skirt
G1 X160.016 Y51.914 E11.50398 ; skirt
G1 X160.606 Y54.463 E11.67802 ; skirt
G1 X160.606 Y117.537 E15.87372 ; skirt
G1 X160.209 Y119.645 E16.01639 ; skirt
G1 X159.074 Y121.464 E16.15906 ; skirt
G1 X157.355 Y122.747 E16.30173 ; skirt
G1 X154.806 Y123.337 E16.47578 ; skirt
G1 X53.194 Y123.337 E23.23504 ; skirt
G1 X51.086 Y122.940 E23.37771 ; skirt
G1 X49.267 Y121.805 E23.52038 ; skirt
G1 X47.984 Y120.086 E23.66305 ; skirt
G1 X47.394 Y117.537 E23.83709 ; skirt
G1 X47.394 Y54.463 E28.03279 ; skirt
G1 X47.791 Y52.355 E28.17546 ; skirt
G1 X48.894 Y50.587 E28.31414 ; skirt
G1 X49.278 Y50.766 F9000.000 ; move to first skirt point
G1 X49.321 Y50.700 E28.31934 F1680.000 ; skirt
G1 X51.020 Y49.520 E28.45696 ; skirt
G1 X53.194 Y49.063 E28.60472 ; skirt
G1 X154.806 Y49.063 E35.36398 ; skirt
G1 X156.837 Y49.459 E35.50160 ; skirt
G1 X158.569 Y50.590 E35.63922 F1680.000 ; skirt
G1 X159.749 Y52.289 E35.77683 ; skirt
G1 X160.206 Y54.463 E35.92460 ; skirt
G1 X160.206 Y117.537 E40.12029 ; skirt
G1 X159.810 Y119.568 E40.25791 ; skirt
G1 X158.679 Y121.300 E40.39553 ; skirt
G1 X156.980 Y122.480 E40.53315 ; skirt
G1 X154.806 Y122.937 E40.68091 ; skirt
G1 X53.194 Y122.937 E47.44017 ; skirt
G1 X51.163 Y122.541 E47.57779 ; skirt
G1 X49.431 Y121.410 E47.71540 ; skirt
G1 X48.251 Y119.711 E47.85302 ; skirt
G1 X47.794 Y117.537 E48.00078 ; skirt
G1 X47.794 Y54.463 E52.19648 ; skirt
G1 X48.190 Y52.432 E52.33410 ; skirt
G1 X49.245 Y50.816 E52.46252 ; skirt
G1 F2400.000 E48.46252 ; retract
G92 E0 ; reset extrusion distance
G1 X51.812 Y53.299 F9000.000 ; move to first brim point
G1 E4.00000 F2400.000 ; compensate retraction
G1 X52.448 Y52.663 E4.05987 F1680.000 ; brim
G1 X155.552 Y52.663 E10.91832 ; brim
G1 X156.606 Y53.717 E11.01751 ; brim
G1 X156.606 Y118.283 E15.31240 F1680.000 ; brim
G1 X155.552 Y119.337 E15.41159 ; brim
G1 X52.448 Y119.337 E22.27005 ; brim
G1 X51.394 Y118.283 E22.36924 ; brim
G1 X51.394 Y110.741 E22.87088 ; brim
G1 X52.448 Y109.687 E22.97007 ; brim
G1 X56.760 Y109.687 E23.25686 ; brim
G1 X56.994 Y109.453 E23.27890 ; brim
G1 X56.994 Y102.521 E23.73998 ; brim
G1 X56.760 Y102.287 E23.76202 ; brim
G1 X52.448 Y102.287 E24.04881 ; brim
G1 X51.394 Y101.233 E24.14800 ; brim
G1 X51.394 Y79.501 E25.59356 ; brim
G1 X52.448 Y78.447 E25.69276 ; brim
G1 X67.960 Y78.447 E26.72457 ; brim
G1 X68.194 Y78.213 E26.74661 ; brim
G1 X68.194 Y68.531 E27.39062 ; brim
G1 X67.960 Y68.297 E27.41266 ; brim
G1 X52.448 Y68.297 E28.44448 ; brim
G1 X51.394 Y67.243 E28.54367 ; brim
G1 X51.394 Y53.717 E29.44337 ; brim
G1 X51.770 Y53.342 E29.47870 ; brim
G1 X52.095 Y53.582 F9000.000 ; move to first brim point
G1 X52.614 Y53.063 E29.52755 F1680.000 ; brim
G1 X155.386 Y53.063 E36.36396 ; brim
G1 X156.206 Y53.883 E36.44111 F1680.000 ; brim
G1 X156.206 Y118.117 E40.71396 ; brim
G1 X155.386 Y118.937 E40.79111 ; brim
G1 X52.614 Y118.937 E47.62751 ; brim
G1 X51.794 Y118.117 E47.70466 ; brim
G1 X51.794 Y110.907 E48.18426 ; brim
G1 X52.614 Y110.087 E48.26141 ; brim
G1 X57.160 Y110.087 E48.56379 ; brim
G1 X57.394 Y109.853 E48.58583 ; brim
G1 X57.394 Y102.121 E49.10012 ; brim
G1 X57.160 Y101.887 E49.12216 ; brim
G1 X52.614 Y101.887 E49.42454 ; brim
G1 X51.794 Y101.067 E49.50169 ; brim
G1 X51.794 Y79.667 E50.92521 ; brim
G1 X52.614 Y78.847 E51.00236 ; brim
G1 X68.360 Y78.847 E52.04976 ; brim
G1 X68.594 Y78.613 E52.07180 ; brim
G1 X68.594 Y68.131 E52.76903 ; brim
G1 X68.360 Y67.897 E52.79107 ; brim
G1 X52.614 Y67.897 E53.83847 ; brim
G1 X51.794 Y67.077 E53.91562 ; brim
G1 X51.794 Y53.883 E54.79327 ; brim
G1 X52.052 Y53.625 E54.81759 ; brim
G1 X52.378 Y53.865 F9000.000 ; move to first brim point
G1 X52.780 Y53.463 E54.85541 F1680.000 ; brim
G1 X155.220 Y53.463 E61.66978 ; brim
G1 X155.806 Y54.049 E61.72488 ; brim
G1 X155.806 Y117.951 E65.97569 F1680.000 ; brim
G1 X155.220 Y118.537 E66.03080 ; brim
G1 X52.780 Y118.537 E72.84516 ; brim
G1 X52.194 Y117.951 E72.90027 ; brim
G1 X52.194 Y111.073 E73.35782 ; brim
G1 X52.780 Y110.487 E73.41293 ; brim
G1 X57.560 Y110.487 E73.73089 ; brim
G1 X57.794 Y110.253 E73.75293 ; brim
G1 X57.794 Y101.721 E74.32044 ; brim
G1 X57.560 Y101.487 E74.34249 ; brim
G1 X52.780 Y101.487 E74.66045 ; brim
G1 X52.194 Y100.901 E74.71555 ; brim
G1 X52.194 Y79.833 E76.11703 ; brim
G1 X52.780 Y79.247 E76.17214 ; brim
G1 X68.760 Y79.247 E77.23513 ; brim
G1 X68.994 Y79.013 E77.25717 ; brim
G1 X68.994 Y67.731 E78.00761 ; brim
G1 X68.760 Y67.497 E78.02965 ; brim
G1 X52.780 Y67.497 E79.09264 ; brim
G1 X52.194 Y66.911 E79.14775 ; brim
G1 X52.194 Y54.049 E80.00336 ; brim
G1 X52.335 Y53.907 E80.01665 ; brim
G1 X52.661 Y54.148 F9000.000 ; move to first brim point
G1 X52.945 Y53.863 E80.04345 F1680.000 ; brim
G1 X155.055 Y53.863 E86.83577 ; brim
G1 X155.406 Y54.214 E86.86884 F1680.000 ; brim
G1 X155.406 Y117.786 E91.09760 ; brim
G1 X155.055 Y118.137 E91.13067 ; brim
G1 X52.945 Y118.137 E97.92299 ; brim
G1 X52.594 Y117.786 E97.95605 ; brim
G1 X52.594 Y111.238 E98.39156 ; brim
G1 X52.945 Y110.887 E98.42463 ; brim
G1 X57.960 Y110.887 E98.75818 ; brim
G1 X58.194 Y110.653 E98.78022 ; brim
G1 X58.194 Y101.321 E99.40094 ; brim
G1 X57.960 Y101.087 E99.42299 ; brim
G1 X52.945 Y101.087 E99.75653 ; brim
G1 X52.594 Y100.736 E99.78960 ; brim
G1 X52.594 Y79.998 E101.16903 ; brim
G1 X52.945 Y79.647 E101.20210 ; brim
G1 X69.160 Y79.647 E102.28067 ; brim
G1 X69.394 Y79.413 E102.30271 ; brim
G1 X69.394 Y67.331 E103.10637 ; brim
G1 X69.160 Y67.097 E103.12841 ; brim
G1 X52.945 Y67.097 E104.20699 ; brim
G1 X52.594 Y66.746 E104.24005 ; brim
G1 X52.594 Y54.214 E105.07362 ; brim
G1 X52.618 Y54.190 E105.07589 ; brim
G1 X53.111 Y54.263 F9000.000 ; move to first brim point
G1 X154.889 Y54.263 E111.84617 F1680.000 ; brim
G1 X155.006 Y54.380 E111.85719 ; brim
G1 X155.006 Y117.620 E116.06391 ; brim
G1 X154.889 Y117.737 E116.07493 ; brim
G1 X53.111 Y117.737 E122.84521 ; brim
G1 X52.994 Y117.620 E122.85624 ; brim
G1 X52.994 Y111.404 E123.26970 ; brim
G1 X53.111 Y111.287 E123.28073 ; brim
G1 X58.360 Y111.287 E123.62986 ; brim
G1 X58.594 Y111.053 E123.65190 ; brim
G1 X58.594 Y100.921 E124.32584 ; brim
G1 X58.360 Y100.687 E124.34789 ; brim
G1 X53.111 Y100.687 E124.69702 ; brim
G1 X52.994 Y100.570 E124.70804 ; brim
G1 X52.994 Y80.164 E126.06543 ; brim
G1 X53.111 Y80.047 E126.07645 ; brim
G1 X69.560 Y80.047 E127.17061 ; brim
G1 X69.794 Y79.813 E127.19266 ; brim
G1 X69.794 Y66.931 E128.04953 ; brim
G1 X69.560 Y66.697 E128.07157 ; brim
G1 X53.111 Y66.697 E129.16573 ; brim
G1 X52.994 Y66.580 E129.17675 ; brim
G1 X52.994 Y54.380 E129.98828 ; brim
G1 X53.069 Y54.305 E129.99531 ; brim
G1 F2400.000 E125.99531 ; retract
G92 E0 ; reset extrusion distance
G1 X70.194 Y80.447 F9000.000 ; move to first perimeter point
G1 E4.00000 F2400.000 ; compensate retraction
G1 X70.194 Y66.297 E4.94126 F840.000 ; perimeter
G1 X53.394 Y66.297 E6.05880 ; perimeter
G1 X53.394 Y54.663 E6.83270 ; perimeter
G1 X154.606 Y54.663 E13.56535 ; perimeter
G1 X154.606 Y117.337 E17.73444 ; perimeter
G1 X53.394 Y117.337 E24.46709 ; perimeter
G1 X53.394 Y111.687 E24.84293 ; perimeter
G1 X58.994 Y111.687 E25.21544 ; perimeter
G1 X58.994 Y100.287 E25.97377 ; perimeter
G1 X53.394 Y100.287 E26.34629 ; perimeter
G1 X53.394 Y80.447 E27.66605 ; perimeter
G1 X70.134 Y80.447 E28.77960 ; perimeter
G1 X70.594 Y80.447 F9000.000 ; move inwards before travel
G1 X70.594 Y80.847 F9000.000 ; move to first perimeter point
G1 X70.594 Y65.897 E29.77408 F630.000 ; perimeter
G1 X53.794 Y65.897 E30.89162 ; perimeter
G1 X53.794 Y55.063 E31.61230 ; perimeter
G1 X154.206 Y55.063 E38.29173 ; perimeter
G1 X154.206 Y116.937 E42.40761 ; perimeter
G1 X53.794 Y116.937 E49.08704 ; perimeter
G1 X53.794 Y112.087 E49.40966 ; perimeter
G1 X59.394 Y112.087 E49.78218 ; perimeter
G1 X59.394 Y99.887 E50.59372 ; perimeter
G1 X53.794 Y99.887 E50.96624 ; perimeter
G1 X53.794 Y80.847 E52.23278 ; perimeter
G1 X70.534 Y80.847 E53.34633 ; perimeter
G1 X70.994 Y81.247 F9000.000 ; move to first perimeter point
G1 X70.994 Y65.497 E54.39403 F630.000 ; perimeter
G1 X54.194 Y65.497 E55.51157 ; perimeter
G1 X54.194 Y55.463 E56.17903 ; perimeter
G1 X153.806 Y55.463 E62.80525 ; perimeter
G1 X153.806 Y116.537 E66.86791 ; perimeter
G1 X54.194 Y116.537 E73.49412 ; perimeter
G1 X54.194 Y112.487 E73.76353 ; perimeter
G1 X59.794 Y112.487 E74.13604 ; perimeter
G1 X59.794 Y99.487 E75.00081 ; perimeter
G1 X54.194 Y99.487 E75.37332 ; perimeter
G1 X54.194 Y81.247 E76.58665 ; perimeter
G1 X70.934 Y81.247 E77.70020 ; perimeter
G1 F2400.000 E73.70020 ; retract
G92 E0 ; reset extrusion distance
G1 X101.713 Y110.946 F9000.000 ; move to first perimeter point
G1 E4.00000 F2400.000 ; compensate retraction
G1 X120.474 Y110.949 E5.24795 F840.000 ; perimeter
G1 X120.834 Y110.994 E5.27209 ; perimeter
G1 X121.178 Y111.091 E5.29592 ; perimeter
G1 X121.496 Y111.239 E5.31924 ; perimeter
G1 X121.777 Y111.433 E5.34192 ; perimeter
G1 X122.009 Y111.669 E5.36393 ; perimeter
G1 X122.184 Y111.939 E5.38533 ; perimeter
G1 X122.293 Y112.234 E5.40627 ; perimeter
G1 X122.326 Y112.439 E5.42010 ; perimeter
G1 X122.314 Y112.750 E5.44078 ; perimeter
G1 X122.228 Y113.051 E5.46162 ; perimeter
G1 X122.074 Y113.331 E5.48285 ; perimeter
G1 X121.860 Y113.579 E5.50464 ; perimeter
G1 X121.594 Y113.787 E5.52709 ; perimeter
G1 X121.288 Y113.951 E5.55021 ; perimeter
G1 X120.951 Y114.065 E5.57388 ; perimeter
G1 X120.595 Y114.128 E5.59795 ; perimeter
G1 X101.870 Y114.140 E6.84355 ; perimeter
G1 X101.509 Y114.113 E6.86759 ; perimeter
G1 X101.158 Y114.033 E6.89155 ; perimeter
G1 X100.830 Y113.902 E6.91505 ; perimeter
G1 X100.630 Y113.787 E6.93040 ; perimeter
G1 X100.364 Y113.579 E6.95286 ; perimeter
G1 X100.215 Y113.417 E6.96747 ; perimeter
G1 X99.857 Y112.879 E7.01051 ; perimeter
G1 X99.939 Y112.879 E7.01595 ; perimeter
G1 X99.848 Y112.561 E7.03793 ; perimeter
G1 X99.883 Y112.561 E7.04028 ; perimeter
G1 X99.910 Y112.336 E7.05533 ; perimeter
G1 X99.960 Y112.133 E7.06921 ; perimeter
G1 X100.091 Y111.845 E7.09028 ; perimeter
G1 X100.287 Y111.586 E7.11187 ; perimeter
G1 X100.536 Y111.364 E7.13410 ; perimeter
G1 X100.830 Y111.184 E7.15700 ; perimeter
G1 X101.158 Y111.053 E7.18051 ; perimeter
G1 X101.663 Y110.946 E7.21483 ; perimeter
G1 X101.891 Y110.588 F9000.000 ; move inwards before travel
G1 F2400.000 E3.21483 ; retract
G92 E0 ; reset extrusion distance
G1 X99.409 Y112.479 F9000.000 ; move to first perimeter point
G1 E4.00000 F2400.000 ; compensate retraction
G1 X99.318 Y112.161 E4.02198 F630.000 ; perimeter
G1 X99.536 Y112.161 E4.03645 ; perimeter
G1 X99.626 Y111.882 E4.05595 ; perimeter
G1 X99.822 Y111.526 E4.08297 ; perimeter
G1 X99.993 Y111.314 E4.10106 ; perimeter
G1 X100.298 Y111.042 E4.12831 ; perimeter
G1 X100.651 Y110.826 E4.15581 ; perimeter
G1 X101.039 Y110.671 E4.18360 ; perimeter
G1 X101.311 Y110.601 E4.20227 ; perimeter
G1 X102.113 Y110.461 E4.25644 ; perimeter
G1 X102.113 Y110.546 E4.26211 ; perimeter
G1 X120.359 Y110.546 E5.47586 ; perimeter
G1 X120.634 Y110.560 E5.49416 ; perimeter
G1 X120.913 Y110.601 E5.51291 ; perimeter
G1 X121.185 Y110.671 E5.53158 ; perimeter
G1 X121.573 Y110.826 E5.55937 ; perimeter
G1 X121.926 Y111.042 E5.58687 ; perimeter
G1 X122.231 Y111.314 E5.61412 ; perimeter
G1 X122.476 Y111.640 E5.64120 ; perimeter
G1 X122.645 Y112.009 E5.66822 ; perimeter
G1 X122.725 Y112.407 E5.69524 ; perimeter
G1 X122.725 Y112.679 E5.71330 ; perimeter
G1 X122.682 Y112.946 E5.73133 ; perimeter
G1 X122.541 Y113.327 E5.75835 ; perimeter
G1 X122.320 Y113.669 E5.78539 ; perimeter
G1 X122.033 Y113.960 E5.81258 ; perimeter
G1 X121.695 Y114.194 E5.83999 ; perimeter
G1 X121.317 Y114.370 E5.86769 ; perimeter
G1 X120.913 Y114.484 E5.89564 ; perimeter
G1 X120.634 Y114.526 E5.91439 ; perimeter
G1 X120.359 Y114.540 E5.93269 ; perimeter
G1 X101.865 Y114.540 E7.16297 ; perimeter
G1 X101.590 Y114.526 E7.18127 ; perimeter
G1 X101.174 Y114.453 E7.20935 ; perimeter
G1 X100.777 Y114.318 E7.23723 ; perimeter
G1 X100.411 Y114.123 E7.26482 ; perimeter
G1 X100.089 Y113.869 E7.29215 ; perimeter
G1 X99.822 Y113.560 E7.31928 ; perimeter
G1 X99.121 Y112.479 E7.40503 ; perimeter
G1 X99.349 Y112.479 E7.42021 ; perimeter
G1 X98.879 Y112.079 F9000.000 ; move to first perimeter point
G1 X98.789 Y111.761 E7.44219 F630.000 ; perimeter
G1 X99.242 Y111.761 E7.47232 ; perimeter
G1 X99.405 Y111.434 E7.49660 ; perimeter
G1 X99.699 Y111.043 E7.52917 ; perimeter
G1 X99.934 Y110.819 E7.55073 ; perimeter
G1 X100.331 Y110.544 E7.58287 ; perimeter
G1 X100.619 Y110.400 E7.60427 ; perimeter
G1 X101.075 Y110.245 E7.63634 ; perimeter
G1 X102.513 Y109.984 E7.73357 ; perimeter
G1 X102.513 Y110.146 E7.74432 ; perimeter
G1 X120.364 Y110.146 E8.93178 ; perimeter
G1 X120.833 Y110.181 E8.96308 ; perimeter
G1 X121.304 Y110.289 E8.99517 ; perimeter
G1 X121.751 Y110.468 E9.02724 ; perimeter
G1 X122.163 Y110.720 E9.05935 ; perimeter
G1 X122.525 Y111.043 E9.09162 ; perimeter
G1 X122.819 Y111.434 E9.12419 ; perimeter
G1 X123.025 Y111.885 E9.15716 ; perimeter
G1 X123.104 Y112.209 E9.17935 ; perimeter
G1 X123.124 Y112.375 E9.19049 ; perimeter
G1 X123.124 Y112.711 E9.21279 ; perimeter
G1 X123.071 Y113.041 E9.23504 ; perimeter
G1 X123.025 Y113.201 E9.24613 ; perimeter
G1 X122.899 Y113.507 E9.26817 ; perimeter
G1 X122.632 Y113.920 E9.30087 ; perimeter
G1 X122.290 Y114.266 E9.33323 ; perimeter
G1 X121.893 Y114.542 E9.36538 ; perimeter
G1 X121.456 Y114.745 E9.39744 ; perimeter
G1 X120.992 Y114.877 E9.42953 ; perimeter
G1 X120.674 Y114.924 E9.45094 ; perimeter
G1 X120.364 Y114.940 E9.47154 ; perimeter
G1 X101.860 Y114.940 E10.70248 ; perimeter
G1 X101.390 Y114.905 E10.73378 ; perimeter
G1 X100.920 Y114.797 E10.76587 ; perimeter
G1 X100.473 Y114.618 E10.79794 ; perimeter
G1 X100.061 Y114.366 E10.83004 ; perimeter
G1 X99.699 Y114.043 E10.86232 ; perimeter
G1 X99.494 Y113.789 E10.88401 ; perimeter
G1 X98.384 Y112.079 E11.01965 ; perimeter
G1 X98.819 Y112.079 E11.04857 ; perimeter
G1 F2400.000 E7.04857 ; retract
G92 E0 ; reset extrusion distance
G1 X126.605 Y110.946 F9000.000 ; move to first perimeter point
G1 E4.00000 F2400.000 ; compensate retraction
G1 X145.366 Y110.949 E5.24795 F840.000 ; perimeter
G1 X145.726 Y110.994 E5.27209 ; perimeter
G1 X146.070 Y111.091 E5.29592 ; perimeter
G1 X146.388 Y111.239 E5.31924 ; perimeter
G1 X146.669 Y111.433 E5.34192 ; perimeter
G1 X146.901 Y111.669 E5.36393 ; perimeter
G1 X147.076 Y111.939 E5.38533 ; perimeter
G1 X147.185 Y112.234 E5.40627 ; perimeter
G1 X147.218 Y112.439 E5.42010 ; perimeter
G1 X147.206 Y112.750 E5.44078 ; perimeter
G1 X147.120 Y113.051 E5.46162 ; perimeter
G1 X146.966 Y113.331 E5.48285 ; perimeter
G1 X146.752 Y113.579 E5.50464 ; perimeter
G1 X146.486 Y113.787 E5.52709 ; perimeter
G1 X146.180 Y113.951 E5.55021 ; perimeter
G1 X145.843 Y114.065 E5.57388 ; perimeter
G1 X145.487 Y114.128 E5.59795 ; perimeter
G1 X126.762 Y114.140 E6.84355 ; perimeter
