; generated by Slic3r 1.1.7 on 2016-11-23 at 14:08:57

; perimeters extrusion width = 0.45mm
; infill extrusion width = 0.40mm
; solid infill extrusion width = 0.40mm
; top infill extrusion width = 0.40mm

G21 ; set units to millimeters
M107 ; disable fan
M104 S220 ; set temperature
G90 ; Set absolute coordinates
G28; Home all axes

M109 S220 ; wait for temperature to be reached
G90 ; use absolute coordinates
G92 E0 ; reset extrusion distance
M82 ; use absolute distances for extrusion
G1 Z0.400 F7200.000 ; move to next layer (0)
G1 F2400.000 E-4.00000 ; retract
G92 E0 ; reset extrusion distance
G1 X42.483 Y7.993 F7200.000 ; move to first skirt point
G1 E4.00000 F2400.000 ; compensate retraction
G1 X42.791 Y6.355 E4.13299 F1680.000 ; skirt
G1 X43.926 Y4.536 E4.30420 ; skirt
G1 X45.645 Y3.253 E4.47540 ; skirt
G1 X48.194 Y2.663 E4.68425 ; skirt
G1 X149.806 Y2.663 E12.79536 ; skirt
G1 X151.914 Y3.060 E12.96656 ; skirt
G1 X153.733 Y4.195 E13.13777 F1680.000 ; skirt
G1 X155.016 Y5.914 E13.30897 ; skirt
G1 X155.606 Y8.463 E13.51782 ; skirt
G1 X155.606 Y71.537 E18.55266 ; skirt
G1 X155.209 Y73.645 E18.72387 ; skirt
G1 X154.074 Y75.464 E18.89507 ; skirt
G1 X152.355 Y76.747 E19.06628 ; skirt
G1 X149.806 Y77.337 E19.27513 ; skirt
G1 X48.194 Y77.337 E27.38624 ; skirt
G1 X46.086 Y76.940 E27.55744 ; skirt
G1 X44.267 Y75.805 E27.72865 ; skirt
G1 X42.984 Y74.086 E27.89985 ; skirt
G1 X42.394 Y71.537 E28.10870 ; skirt
G1 X42.394 Y8.463 E33.14354 ; skirt
G1 X42.471 Y8.052 E33.17696 ; skirt
G1 X42.871 Y8.068 F7200.000 ; move to first skirt point
G1 X43.190 Y6.432 E33.31001 F1680.000 ; skirt
G1 X44.321 Y4.700 E33.47515 ; skirt
G1 X46.020 Y3.520 E33.64029 ; skirt
G1 X48.194 Y3.063 E33.81761 ; skirt
G1 X149.806 Y3.063 E41.92872 ; skirt
G1 X151.837 Y3.459 E42.09386 ; skirt
G1 X153.569 Y4.590 E42.25900 F1680.000 ; skirt
G1 X154.749 Y6.289 E42.42414 ; skirt
G1 X155.206 Y8.463 E42.60146 ; skirt
G1 X155.206 Y71.537 E47.63629 ; skirt
G1 X154.810 Y73.568 E47.80144 ; skirt
G1 X153.679 Y75.300 E47.96658 ; skirt
G1 X151.980 Y76.480 E48.13172 ; skirt
G1 X149.806 Y76.937 E48.30903 ; skirt
G1 X48.194 Y76.937 E56.42014 ; skirt
G1 X46.163 Y76.541 E56.58528 ; skirt
G1 X44.431 Y75.410 E56.75043 ; skirt
G1 X43.251 Y73.711 E56.91557 ; skirt
G1 X42.794 Y71.537 E57.09288 ; skirt
G1 X42.794 Y8.463 E62.12772 ; skirt
G1 X42.860 Y8.127 E62.15503 ; skirt
G1 F2400.000 E58.15503 ; retract
G92 E0 ; reset extrusion distance
G1 X46.394 Y8.068 F7200.000 ; move to first brim point
G1 E4.00000 F2400.000 ; compensate retraction
G1 X46.394 Y7.717 E4.02801 F1680.000 ; brim
G1 X47.448 Y6.663 E4.14705 ; brim
G1 X150.552 Y6.663 E12.37719 ; brim
G1 X151.606 Y7.717 E12.49622 ; brim
G1 X151.606 Y72.283 E17.65009 F1680.000 ; brim
G1 X150.552 Y73.337 E17.76912 ; brim
G1 X47.448 Y73.337 E25.99926 ; brim
G1 X46.394 Y72.283 E26.11829 ; brim
G1 X46.394 Y8.128 E31.23936 ; brim
G1 X46.794 Y8.068 F7200.000 ; move to first brim point
G1 X46.794 Y7.883 E31.25415 F1680.000 ; brim
G1 X47.614 Y7.063 E31.34673 ; brim
G1 X150.386 Y7.063 E39.55042 ; brim
G1 X151.206 Y7.883 E39.64300 F1680.000 ; brim
G1 X151.206 Y72.117 E44.77042 ; brim
G1 X150.386 Y72.937 E44.86300 ; brim
G1 X47.614 Y72.937 E53.06669 ; brim
G1 X46.794 Y72.117 E53.15927 ; brim
G1 X46.794 Y8.128 E58.26711 ; brim
G1 X47.194 Y8.068 F7200.000 ; move to first brim point
G1 X47.194 Y8.049 E58.26867 F1680.000 ; brim
G1 X47.780 Y7.463 E58.33480 ; brim
G1 X150.220 Y7.463 E66.51204 ; brim
G1 X150.806 Y8.049 E66.57817 ; brim
G1 X150.806 Y71.951 E71.67914 F1680.000 ; brim
G1 X150.220 Y72.537 E71.74527 ; brim
G1 X47.780 Y72.537 E79.92250 ; brim
G1 X47.194 Y71.951 E79.98863 ; brim
G1 X47.194 Y8.128 E85.08325 ; brim
G1 X47.594 Y8.214 F7200.000 ; move to first brim point
G1 X47.945 Y7.863 E85.12293 F1680.000 ; brim
G1 X150.055 Y7.863 E93.27371 ; brim
G1 X150.406 Y8.214 E93.31339 F1680.000 ; brim
G1 X150.406 Y71.786 E98.38791 ; brim
G1 X150.055 Y72.137 E98.42758 ; brim
G1 X47.945 Y72.137 E106.57837 ; brim
G1 X47.594 Y71.786 E106.61805 ; brim
G1 X47.594 Y8.274 E111.68777 ; brim
G1 X48.111 Y8.263 F7200.000 ; move to first brim point
G1 X149.889 Y8.263 E119.81211 F1680.000 ; brim
G1 X150.006 Y8.380 E119.82534 ; brim
G1 X150.006 Y71.620 E124.87340 ; brim
G1 X149.889 Y71.737 E124.88663 ; brim
G1 X48.111 Y71.737 E133.01096 ; brim
G1 X47.994 Y71.620 E133.02419 ; brim
G1 X47.994 Y8.380 E138.07225 ; brim
G1 X48.069 Y8.305 E138.08069 ; brim
G1 X48.394 Y8.663 F7200.000 ; move to first perimeter point
G1 X149.606 Y8.663 E146.15987 F420.000 ; perimeter
G1 X149.606 Y71.337 E151.16278 ; perimeter
G1 X48.394 Y71.337 E159.24196 ; perimeter
G1 X48.394 Y8.723 E164.24008 ; perimeter
G1 X48.740 Y8.863 F7200.000 ; move inwards before travel
G1 X48.794 Y9.063 F7200.000 ; move to first perimeter point
G1 X149.206 Y9.063 E172.25540 F630.000 ; perimeter
G1 X149.206 Y70.937 E177.19445 ; perimeter
G1 X48.794 Y70.937 E185.20977 ; perimeter
G1 X48.794 Y9.123 E190.14403 ; perimeter
G1 X49.194 Y9.463 F7200.000 ; move to first perimeter point
G1 X148.806 Y9.463 E198.09549 F630.000 ; perimeter
G1 X148.806 Y70.537 E202.97068 ; perimeter
G1 X49.194 Y70.537 E210.92214 ; perimeter
G1 X49.194 Y9.523 E215.79255 ; perimeter
G1 F2400.000 E211.79255 ; retract
G92 E0 ; reset extrusion distance
G1 X64.794 Y22.198 F7200.000 ; move to first perimeter point
G1 E4.00000 F2400.000 ; compensate retraction
G1 X69.394 Y22.198 E4.36719 F420.000 ; perimeter
G1 X69.394 Y57.802 E7.20929 ; perimeter
G1 X64.794 Y57.802 E7.57648 ; perimeter
G1 X64.794 Y22.258 E10.41379 ; perimeter
G1 X64.794 Y21.798 F7200.000 ; move inwards before travel
G1 X64.394 Y21.798 F7200.000 ; move to first perimeter point
G1 X69.794 Y21.798 E10.84484 F630.000 ; perimeter
G1 X69.794 Y58.202 E13.75080 ; perimeter
G1 X64.394 Y58.202 E14.18185 ; perimeter
G1 X64.394 Y21.858 E17.08301 ; perimeter
G1 X63.994 Y21.398 F7200.000 ; move to first perimeter point
G1 X70.194 Y21.398 E17.57792 F630.000 ; perimeter
G1 X70.194 Y58.602 E20.54774 ; perimeter
G1 X63.994 Y58.602 E21.04265 ; perimeter
G1 X63.994 Y21.458 E24.00768 ; perimeter
G1 F2400.000 E20.00768 ; retract
G92 E0 ; reset extrusion distance
G1 X73.194 Y22.198 F7200.000 ; move to first perimeter point
G1 E4.00000 F2400.000 ; compensate retraction
G1 X77.794 Y22.198 E4.36719 F420.000 ; perimeter
G1 X77.794 Y57.802 E7.20929 ; perimeter
G1 X73.194 Y57.802 E7.57648 ; perimeter
G1 X73.194 Y22.258 E10.41379 ; perimeter
G1 X73.194 Y21.798 F7200.000 ; move inwards before travel
G1 X72.794 Y21.798 F7200.000 ; move to first perimeter point
G1 X78.194 Y21.798 E10.84484 F630.000 ; perimeter
G1 X78.194 Y58.202 E13.75080 ; perimeter
G1 X72.794 Y58.202 E14.18185 ; perimeter
G1 X72.794 Y21.858 E17.08301 ; perimeter
G1 X72.394 Y21.398 F7200.000 ; move to first perimeter point
G1 X78.594 Y21.398 E17.57792 F630.000 ; perimeter
G1 X78.594 Y58.602 E20.54774 ; perimeter
G1 X72.394 Y58.602 E21.04265 ; perimeter
G1 X72.394 Y21.458 E24.00768 ; perimeter
G1 F2400.000 E20.00768 ; retract
G92 E0 ; reset extrusion distance
G1 X81.594 Y22.198 F7200.000 ; move to first perimeter point
G1 E4.00000 F2400.000 ; compensate retraction
G1 X86.194 Y22.198 E4.36719 F420.000 ; perimeter
G1 X86.194 Y57.802 E7.20929 ; perimeter
G1 X81.594 Y57.802 E7.57648 ; perimeter
G1 X81.594 Y22.258 E10.41379 ; perimeter
G1 X81.594 Y21.798 F7200.000 ; move inwards before travel
G1 X81.194 Y21.798 F7200.000 ; move to first perimeter point
G1 X86.594 Y21.798 E10.84484 F630.000 ; perimeter
G1 X86.594 Y58.202 E13.75080 ; perimeter
G1 X81.194 Y58.202 E14.18185 ; perimeter
G1 X81.194 Y21.858 E17.08301 ; perimeter
G1 X80.794 Y21.398 F7200.000 ; move to first perimeter point
G1 X86.994 Y21.398 E17.57792 F630.000 ; perimeter
G1 X86.994 Y58.602 E20.54774 ; perimeter
G1 X80.794 Y58.602 E21.04265 ; perimeter
G1 X80.794 Y21.458 E24.00768 ; perimeter
G1 F2400.000 E20.00768 ; retract
G92 E0 ; reset extrusion distance
G1 X89.994 Y22.198 F7200.000 ; move to first perimeter point
G1 E4.00000 F2400.000 ; compensate retraction
G1 X94.594 Y22.198 E4.36719 F420.000 ; perimeter
G1 X94.594 Y57.802 E7.20929 ; perimeter
G1 X89.994 Y57.802 E7.57648 ; perimeter
G1 X89.994 Y22.258 E10.41379 ; perimeter
G1 X89.994 Y21.798 F7200.000 ; move inwards before travel
G1 X89.594 Y21.798 F7200.000 ; move to first perimeter point
G1 X94.994 Y21.798 E10.84484 F630.000 ; perimeter
G1 X94.994 Y58.202 E13.75080 ; perimeter
G1 X89.594 Y58.202 E14.18185 ; perimeter
G1 X89.594 Y21.858 E17.08302 ; perimeter
G1 X89.194 Y21.398 F7200.000 ; move to first perimeter point
G1 X95.394 Y21.398 E17.57793 F630.000 ; perimeter
G1 X95.394 Y58.602 E20.54774 ; perimeter
G1 X89.194 Y58.602 E21.04265 ; perimeter
G1 X89.194 Y21.458 E24.00768 ; perimeter
G1 F2400.000 E20.00768 ; retract
G92 E0 ; reset extrusion distance
G1 X98.394 Y22.198 F7200.000 ; move to first perimeter point
G1 E4.00000 F2400.000 ; compensate retraction
G1 X102.994 Y22.198 E4.36719 F420.000 ; perimeter
G1 X102.994 Y57.802 E7.20929 ; perimeter
G1 X98.394 Y57.802 E7.57648 ; perimeter
G1 X98.394 Y22.258 E10.41379 ; perimeter
G1 X98.394 Y21.798 F7200.000 ; move inwards before travel
G1 X97.994 Y21.798 F7200.000 ; move to first perimeter point
G1 X103.394 Y21.798 E10.84484 F630.000 ; perimeter
G1 X103.394 Y58.202 E13.75080 ; perimeter
G1 X97.994 Y58.202 E14.18185 ; perimeter
G1 X97.994 Y21.858 E17.08301 ; perimeter
G1 X97.594 Y21.398 F7200.000 ; move to first perimeter point
G1 X103.794 Y21.398 E17.57792 F630.000 ; perimeter
G1 X103.794 Y58.602 E20.54774 ; perimeter
G1 X97.594 Y58.602 E21.04265 ; perimeter
G1 X97.594 Y21.458 E24.00768 ; perimeter
G1 F2400.000 E20.00768 ; retract
G92 E0 ; reset extrusion distance
G1 X106.794 Y22.198 F7200.000 ; move to first perimeter point
G1 E4.00000 F2400.000 ; compensate retraction
G1 X111.394 Y22.198 E4.36719 F420.000 ; perimeter
G1 X111.394 Y57.802 E7.20929 ; perimeter
G1 X106.794 Y57.802 E7.57648 ; perimeter
G1 X106.794 Y22.258 E10.41379 ; perimeter
G1 X106.794 Y21.798 F7200.000 ; move inwards before travel
G1 X106.394 Y21.798 F7200.000 ; move to first perimeter point
G1 X111.794 Y21.798 E10.84484 F630.000 ; perimeter
G1 X111.794 Y58.202 E13.75080 ; perimeter
G1 X106.394 Y58.202 E14.18185 ; perimeter
G1 X106.394 Y21.858 E17.08302 ; perimeter
G1 X105.994 Y21.398 F7200.000 ; move to first perimeter point
G1 X112.194 Y21.398 E17.57793 F630.000 ; perimeter
G1 X112.194 Y58.602 E20.54774 ; perimeter
G1 X105.994 Y58.602 E21.04265 ; perimeter
G1 X105.994 Y21.458 E24.00768 ; perimeter
G1 F2400.000 E20.00768 ; retract
G92 E0 ; reset extrusion distance
G1 X115.194 Y22.198 F7200.000 ; move to first perimeter point
G1 E4.00000 F2400.000 ; compensate retraction
G1 X119.794 Y22.198 E4.36719 F420.000 ; perimeter
G1 X119.794 Y57.802 E7.20929 ; perimeter
G1 X115.194 Y57.802 E7.57648 ; perimeter
G1 X115.194 Y22.258 E10.41379 ; perimeter
G1 X115.194 Y21.798 F7200.000 ; move inwards before travel
G1 X114.794 Y21.798 F7200.000 ; move to first perimeter point
G1 X120.194 Y21.798 E10.84484 F630.000 ; perimeter
G1 X120.194 Y58.202 E13.75080 ; perimeter
G1 X114.794 Y58.202 E14.18185 ; perimeter
G1 X114.794 Y21.858 E17.08302 ; perimeter
G1 X114.394 Y21.398 F7200.000 ; move to first perimeter point
G1 X120.594 Y21.398 E17.57793 F630.000 ; perimeter
G1 X120.594 Y58.602 E20.54774 ; perimeter
G1 X114.394 Y58.602 E21.04265 ; perimeter
G1 X114.394 Y21.458 E24.00768 ; perimeter
G1 F2400.000 E20.00768 ; retract
G92 E0 ; reset extrusion distance
G1 X123.594 Y22.198 F7200.000 ; move to first perimeter point
G1 E4.00000 F2400.000 ; compensate retraction
G1 X128.194 Y22.198 E4.36719 F420.000 ; perimeter
G1 X128.194 Y57.802 E7.20929 ; perimeter
G1 X123.594 Y57.802 E7.57648 ; perimeter
G1 X123.594 Y22.258 E10.41379 ; perimeter
G1 X123.594 Y21.798 F7200.000 ; move inwards before travel
G1 X123.194 Y21.798 F7200.000 ; move to first perimeter point
G1 X128.594 Y21.798 E10.84484 F630.000 ; perimeter
G1 X128.594 Y58.202 E13.75080 ; perimeter
G1 X123.194 Y58.202 E14.18185 ; perimeter
G1 X123.194 Y21.858 E17.08302 ; perimeter
G1 X122.794 Y21.398 F7200.000 ; move to first perimeter point
G1 X128.994 Y21.398 E17.57793 F630.000 ; perimeter
G1 X128.994 Y58.602 E20.54774 ; perimeter
G1 X122.794 Y58.602 E21.04265 ; perimeter
G1 X122.794 Y21.458 E24.00768 ; perimeter
G1 F2400.000 E20.00768 ; retract
G92 E0 ; reset extrusion distance
G1 X131.994 Y22.198 F7200.000 ; move to first perimeter point
G1 E4.00000 F2400.000 ; compensate retraction
G1 X136.594 Y22.198 E4.36719 F420.000 ; perimeter
G1 X136.594 Y57.802 E7.20929 ; perimeter
G1 X131.994 Y57.802 E7.57648 ; perimeter
G1 X131.994 Y22.258 E10.41379 ; perimeter
G1 X131.994 Y21.798 F7200.000 ; move inwards before travel
G1 X131.594 Y21.798 F7200.000 ; move to first perimeter point
G1 X136.994 Y21.798 E10.84484 F630.000 ; perimeter
G1 X136.994 Y58.202 E13.75079 ; perimeter
G1 X131.594 Y58.202 E14.18185 ; perimeter
G1 X131.594 Y21.858 E17.08301 ; perimeter
G1 X131.194 Y21.398 F7200.000 ; move to first perimeter point
G1 X137.394 Y21.398 E17.57792 F630.000 ; perimeter
G1 X137.394 Y58.602 E20.54774 ; perimeter
G1 X131.194 Y58.602 E21.04265 ; perimeter
G1 X131.194 Y21.458 E24.00768 ; perimeter
G1 F2400.000 E20.00768 ; retract
G92 E0 ; reset extrusion distance
G1 X128.778 Y21.128 F7200.000 ; move to first fill point
G1 E4.00000 F2400.000 ; compensate retraction
G1 X117.383 Y9.733 E5.28635 F840.000 ; fill
G1 X116.817 Y9.733 E5.33150 ; fill
G1 X128.212 Y21.128 E6.61785 ; fill
G1 X127.646 Y21.128 E6.66301 ; fill
G1 X116.251 Y9.733 E7.94936 ; fill
G1 X115.686 Y9.733 E7.99451 ; fill
G1 X127.081 Y21.128 E9.28086 ; fill
G1 X126.515 Y21.128 E9.32602 ; fill
G1 X115.120 Y9.733 E10.61237 ; fill
G1 X114.554 Y9.733 E10.65752 ; fill
G1 X125.949 Y21.128 E11.94387 ; fill
G1 X125.383 Y21.128 E11.98903 ; fill
G1 X113.989 Y9.733 E13.27537 ; fill
G1 X113.423 Y9.733 E13.32053 ; fill
G1 X124.818 Y21.128 E14.60688 ; fill
G1 X124.252 Y21.128 E14.65203 ; fill
G1 X112.857 Y9.733 E15.93838 ; fill
G1 X112.292 Y9.733 E15.98354 ; fill
G1 X123.686 Y21.128 E17.26989 ; fill
G1 X123.121 Y21.128 E17.31504 ; fill
G1 X111.726 Y9.733 E18.60139 ; fill
G1 X111.160 Y9.733 E18.64655 ; fill
G1 X122.555 Y21.128 E19.93290 ; fill
G1 X122.524 Y21.663 E19.97565 ; fill
G1 X110.594 Y9.733 E21.32237 ; fill
G1 X110.029 Y9.733 E21.36752 ; fill
G1 X122.524 Y22.228 E22.77810 ; fill
G1 X122.524 Y22.794 E22.82326 ; fill
G1 X109.463 Y9.733 E24.29769 ; fill
G1 X108.897 Y9.733 E24.34285 ; fill
G1 X120.292 Y21.128 E25.62920 ; fill
G1 X119.726 Y21.128 E25.67435 ; fill
G1 X108.332 Y9.733 E26.96070 ; fill
G1 X107.766 Y9.733 E27.00586 ; fill
G1 X119.161 Y21.128 E28.29220 ; fill
G1 X118.595 Y21.128 E28.33736 ; fill
G1 X107.200 Y9.733 E29.62371 ; fill
G1 X106.635 Y9.733 E29.66887 ; fill
G1 X118.029 Y21.128 E30.95521 ; fill
G1 X117.464 Y21.128 E31.00037 ; fill
G1 X106.069 Y9.733 E32.28672 ; fill
G1 X105.503 Y9.733 E32.33187 ; fill
G1 X116.898 Y21.128 E33.61822 ; fill
G1 X116.332 Y21.128 E33.66338 ; fill
G1 X104.937 Y9.733 E34.94973 ; fill
G1 X104.372 Y9.733 E34.99488 ; fill
G1 X115.767 Y21.128 E36.28123 ; fill
G1 X115.201 Y21.128 E36.32639 ; fill
G1 X103.806 Y9.733 E37.61273 ; fill
G1 X103.240 Y9.733 E37.65789 ; fill
G1 X114.635 Y21.128 E38.94424 ; fill
G1 X114.124 Y21.182 E38.98528 ; fill
G1 X102.675 Y9.733 E40.27778 ; fill
G1 X102.109 Y9.733 E40.32293 ; fill
G1 X114.124 Y21.748 E41.67929 ; fill
G1 X114.124 Y22.314 E41.72445 ; fill
G1 X101.543 Y9.733 E43.14467 ; fill
G1 X100.978 Y9.733 E43.18982 ; fill
G1 X114.124 Y22.879 E44.67390 ; fill
G1 X114.124 Y23.445 E44.71906 ; fill
G1 X112.464 Y21.785 E44.90646 ; fill
G1 X112.464 Y22.351 E44.95162 ; fill
G1 X114.124 Y24.011 E45.13902 ; fill
G1 X114.124 Y24.576 E45.18417 ; fill
G1 X112.464 Y22.916 E45.37157 ; fill
