; generated by Slic3r 1.1.7 on 2016-11-09 at 18:27:32

; perimeters extrusion width = 0.45mm
; infill extrusion width = 0.40mm
; solid infill extrusion width = 0.40mm
; top infill extrusion width = 0.40mm

G21 ; set units to millimeters
M107 ; disable fan
M104 S220 ; set temperature
G90 ; Set absolute coordinates
G28; Home all axes

M109 S220 ; wait for temperature to be reached
G90 ; use absolute coordinates
G92 E0 ; reset extrusion distance
M82 ; use absolute distances for extrusion
G1 Z0.400 F6000.000 ; move to next layer (0)
G1 F2400.000 E-4.00000 ; retract
G92 E0 ; reset extrusion distance
G1 X7.918 Y8.451 F6000.000 ; move to first skirt point
G1 E4.00000 F2400.000 ; compensate retraction
G1 X8.682 Y7.757 E4.06868 F1680.000 ; skirt
G1 X9.492 Y7.073 E4.13919 ; skirt
G1 X10.326 Y6.421 E4.20963 ; skirt
G1 X11.012 Y5.921 E4.26610 ; skirt
G1 X21.095 Y-0.899 E5.07585 ; skirt
G1 X21.569 Y-1.195 E5.11302 ; skirt
G1 X22.089 Y-1.477 E5.15236 ; skirt
G1 X23.340 Y-1.945 E5.24124 ; skirt
G1 X23.552 Y-1.998 E5.25576 ; skirt
G1 X24.216 Y-2.139 E5.30094 ; skirt
G1 X24.956 Y-2.253 E5.35068 ; skirt
G1 X25.549 Y-2.308 E5.39035 ; skirt
G1 X26.220 Y-2.330 E5.43502 ; skirt
G1 X26.752 Y-2.314 E5.47040 F1680.000 ; skirt
G1 X27.447 Y-2.250 E5.51683 ; skirt
G1 X27.898 Y-2.180 E5.54717 ; skirt
G1 X28.549 Y-2.036 E5.59153 ; skirt
G1 X28.973 Y-1.914 E5.62087 ; skirt
G1 X29.579 Y-1.697 E5.66371 ; skirt
G1 X30.161 Y-1.438 E5.70610 ; skirt
G1 X30.711 Y-1.143 E5.74763 ; skirt
G1 X40.545 Y4.911 E6.51576 ; skirt
G1 X41.204 Y5.335 E6.56790 ; skirt
G1 X42.273 Y6.082 E6.65464 ; skirt
G1 X43.308 Y6.884 E6.74173 ; skirt
G1 X44.307 Y7.737 E6.82912 ; skirt
G1 X45.080 Y8.456 E6.89938 ; skirt
G1 X45.643 Y9.016 E6.95218 ; skirt
G1 X46.337 Y9.748 E7.01926 ; skirt
G1 X46.942 Y10.430 E7.07992 ; skirt
G1 X47.457 Y11.047 E7.13336 ; skirt
G1 X48.028 Y11.777 E7.19501 ; skirt
G1 X48.544 Y12.484 E7.25326 ; skirt
G1 X49.039 Y13.212 E7.31179 ; skirt
G1 X49.506 Y13.950 E7.36989 ; skirt
G1 X49.936 Y14.682 E7.42638 ; skirt
G1 X54.880 Y23.442 E8.09551 ; skirt
G1 X55.166 Y24.050 E8.14020 ; skirt
G1 X55.405 Y24.664 E8.18405 ; skirt
G1 X55.598 Y25.279 E8.22693 ; skirt
G1 X55.768 Y25.980 E8.27491 ; skirt
G1 X55.911 Y26.842 E8.33299 ; skirt
G1 X56.002 Y27.870 E8.40164 ; skirt
G1 X56.023 Y28.909 E8.47077 ; skirt
G1 X55.976 Y29.986 E8.54248 ; skirt
G1 X55.861 Y31.008 E8.61092 ; skirt
G1 X55.673 Y32.055 E8.68166 ; skirt
G1 X55.418 Y33.082 E8.75206 ; skirt
G1 X55.097 Y34.087 E8.82224 ; skirt
G1 X44.479 Y63.086 E10.87653 ; skirt
G1 X44.293 Y63.550 E10.90977 ; skirt
G1 X43.993 Y64.176 E10.95595 ; skirt
G1 X43.726 Y64.643 E10.99174 ; skirt
G1 X43.411 Y65.117 E11.02958 ; skirt
G1 X42.954 Y65.698 E11.07873 ; skirt
G1 X42.481 Y66.199 E11.12456 ; skirt
G1 X42.094 Y66.550 E11.15935 ; skirt
G1 X41.651 Y66.896 E11.19671 ; skirt
G1 X41.032 Y67.300 E11.24589 ; skirt
G1 X40.703 Y67.482 E11.27090 ; skirt
G1 X40.192 Y67.723 E11.30849 ; skirt
G1 X39.822 Y67.870 E11.33499 ; skirt
G1 X39.294 Y68.041 E11.37188 ; skirt
G1 X38.741 Y68.175 E11.40975 ; skirt
G1 X38.366 Y68.241 E11.43509 ; skirt
G1 X37.490 Y68.322 E11.49357 ; skirt
G1 X14.843 Y68.329 E13.00007 ; skirt
G1 X14.158 Y68.297 E13.04573 ; skirt
G1 X13.693 Y68.239 E13.07690 ; skirt
G1 X13.264 Y68.158 E13.10594 ; skirt
G1 X12.813 Y68.044 E13.13688 ; skirt
G1 X12.335 Y67.888 E13.17029 ; skirt
G1 X11.649 Y67.594 E13.21995 ; skirt
G1 X11.274 Y67.394 E13.24821 ; skirt
G1 X10.869 Y67.145 E13.27987 ; skirt
G1 X10.521 Y66.901 E13.30814 ; skirt
G1 X10.167 Y66.621 E13.33812 ; skirt
G1 X9.835 Y66.326 E13.36767 ; skirt
G1 X9.398 Y65.881 E13.40918 ; skirt
G1 X9.110 Y65.548 E13.43844 ; skirt
G1 X8.818 Y65.170 E13.47024 ; skirt
G1 X8.497 Y64.696 E13.50830 ; skirt
G1 X8.282 Y64.338 E13.53609 ; skirt
G1 X7.970 Y63.735 E13.58122 ; skirt
G1 X7.691 Y63.070 E13.62923 ; skirt
G1 X-3.125 Y33.961 E15.69491 ; skirt
G1 X-3.337 Y33.314 E15.74019 ; skirt
G1 X-3.521 Y32.660 E15.78541 ; skirt
G1 X-3.677 Y31.998 E15.83063 ; skirt
G1 X-3.798 Y31.371 E15.87309 ; skirt
G1 X-3.892 Y30.750 E15.91488 ; skirt
G1 X-3.961 Y30.121 E15.95699 ; skirt
G1 X-4.005 Y29.494 E15.99879 ; skirt
G1 X-4.023 Y28.871 E16.04023 ; skirt
G1 X-4.009 Y28.009 E16.09762 ; skirt
G1 X-3.944 Y27.135 E16.15591 ; skirt
G1 X-3.817 Y26.257 E16.21492 ; skirt
G1 X-3.683 Y25.629 E16.25763 ; skirt
G1 X-3.513 Y25.013 E16.30013 ; skirt
G1 X-3.273 Y24.327 E16.34846 ; skirt
G1 X-2.968 Y23.631 E16.39905 ; skirt
G1 X-2.641 Y23.019 E16.44519 ; skirt
G1 X-2.362 Y22.570 E16.48038 ; skirt
G1 X3.740 Y13.387 E17.21375 ; skirt
G1 X4.341 Y12.523 E17.28379 ; skirt
G1 X5.121 Y11.494 E17.36972 ; skirt
G1 X5.964 Y10.482 E17.45731 ; skirt
G1 X6.938 Y9.420 E17.55316 ; skirt
G1 X7.874 Y8.493 E17.64080 ; skirt
G1 X8.191 Y8.743 F6000.000 ; move to first skirt point
G1 X8.944 Y8.059 E17.70851 F1680.000 ; skirt
G1 X9.743 Y7.385 E17.77803 ; skirt
G1 X10.565 Y6.742 E17.84747 ; skirt
G1 X11.242 Y6.249 E17.90314 ; skirt
G1 X21.317 Y-0.566 E18.71227 ; skirt
G1 X21.770 Y-0.849 E18.74777 ; skirt
G1 X22.269 Y-1.119 E18.78553 ; skirt
G1 X23.439 Y-1.557 E18.86867 ; skirt
G1 X23.645 Y-1.608 E18.88274 ; skirt
G1 X24.288 Y-1.746 E18.92654 ; skirt
G1 X25.002 Y-1.856 E18.97458 ; skirt
G1 X25.574 Y-1.909 E19.01279 ; skirt
G1 X26.219 Y-1.930 E19.05571 ; skirt
G1 X26.728 Y-1.915 E19.08959 F1680.000 ; skirt
G1 X27.394 Y-1.854 E19.13404 ; skirt
G1 X27.825 Y-1.786 E19.16305 ; skirt
G1 X28.447 Y-1.649 E19.20543 ; skirt
G1 X28.851 Y-1.532 E19.23342 ; skirt
G1 X29.429 Y-1.326 E19.27427 ; skirt
G1 X29.984 Y-1.079 E19.31467 ; skirt
G1 X30.508 Y-0.798 E19.35422 ; skirt
G1 X40.332 Y5.250 E20.12164 ; skirt
G1 X40.982 Y5.667 E20.17299 ; skirt
G1 X42.034 Y6.404 E20.25844 ; skirt
G1 X43.054 Y7.193 E20.34425 ; skirt
G1 X44.039 Y8.034 E20.43037 ; skirt
G1 X44.801 Y8.743 E20.49962 ; skirt
G1 X45.357 Y9.294 E20.55168 ; skirt
G1 X46.041 Y10.017 E20.61789 ; skirt
G1 X46.639 Y10.691 E20.67786 ; skirt
G1 X47.145 Y11.298 E20.73038 ; skirt
G1 X47.708 Y12.017 E20.79113 ; skirt
G1 X48.216 Y12.714 E20.84851 ; skirt
G1 X48.704 Y13.430 E20.90614 ; skirt
G1 X49.164 Y14.157 E20.96335 ; skirt
G1 X49.588 Y14.879 E21.01906 ; skirt
G1 X54.524 Y23.624 E21.68707 ; skirt
G1 X54.798 Y24.206 E21.72988 ; skirt
G1 X55.027 Y24.795 E21.77192 ; skirt
G1 X55.212 Y25.386 E21.81309 ; skirt
G1 X55.376 Y26.060 E21.85923 ; skirt
G1 X55.514 Y26.892 E21.91532 ; skirt
G1 X55.603 Y27.889 E21.98192 ; skirt
G1 X55.623 Y28.904 E22.04942 ; skirt
G1 X55.577 Y29.953 E22.11929 ; skirt
G1 X55.465 Y30.949 E22.18597 ; skirt
G1 X55.282 Y31.970 E22.25495 ; skirt
G1 X55.033 Y32.971 E22.32361 ; skirt
G1 X54.721 Y33.952 E22.39208 ; skirt
G1 X43.987 Y63.247 E24.46749 ; skirt
G1 X43.719 Y63.834 E24.51038 ; skirt
G1 X43.386 Y64.433 E24.55599 ; skirt
G1 X43.086 Y64.884 E24.59198 ; skirt
G1 X42.652 Y65.436 E24.63869 ; skirt
G1 X42.204 Y65.911 E24.68217 ; skirt
G1 X41.836 Y66.244 E24.71515 ; skirt
G1 X41.417 Y66.572 E24.75054 ; skirt
G1 X40.831 Y66.955 E24.79711 ; skirt
G1 X40.520 Y67.127 E24.82079 ; skirt
G1 X40.036 Y67.355 E24.85637 ; skirt
G1 X39.685 Y67.494 E24.88145 ; skirt
G1 X39.186 Y67.656 E24.91637 ; skirt
G1 X38.662 Y67.783 E24.95221 ; skirt
G1 X38.307 Y67.846 E24.97620 ; skirt
G1 X37.478 Y67.922 E25.03162 ; skirt
G1 X14.846 Y67.929 E26.53710 ; skirt
G1 X14.196 Y67.898 E26.58040 ; skirt
G1 X13.756 Y67.844 E26.60989 ; skirt
G1 X13.350 Y67.767 E26.63736 ; skirt
G1 X12.924 Y67.660 E26.66657 ; skirt
G1 X12.474 Y67.513 E26.69808 ; skirt
G1 X11.828 Y67.236 E26.74485 ; skirt
G1 X11.473 Y67.047 E26.77156 ; skirt
G1 X11.090 Y66.811 E26.80148 ; skirt
G1 X10.425 Y66.315 E26.85663 ; skirt
G1 X10.110 Y66.035 E26.88469 ; skirt
G1 X9.694 Y65.613 E26.92413 ; skirt
G1 X9.141 Y64.933 E26.98243 ; skirt
G1 X8.836 Y64.484 E27.01857 ; skirt
G1 X8.603 Y64.093 E27.04879 ; skirt
G1 X8.332 Y63.564 E27.08833 ; skirt
G1 X8.066 Y62.931 E27.13406 ; skirt
G1 X-2.747 Y33.831 E29.19911 ; skirt
G1 X-2.953 Y33.199 E29.24329 ; skirt
G1 X-3.133 Y32.561 E29.28739 ; skirt
G1 X-3.285 Y31.916 E29.33149 ; skirt
G1 X-3.403 Y31.305 E29.37289 ; skirt
G1 X-3.563 Y30.087 E29.45461 ; skirt
G1 X-3.623 Y28.869 E29.53569 ; skirt
G1 X-3.610 Y28.027 E29.59172 ; skirt
G1 X-3.546 Y27.180 E29.64826 ; skirt
G1 X-3.424 Y26.331 E29.70532 ; skirt
G1 X-3.295 Y25.725 E29.74650 ; skirt
G1 X-3.132 Y25.133 E29.78736 ; skirt
G1 X-2.900 Y24.472 E29.83395 ; skirt
G1 X-2.609 Y23.807 E29.88223 ; skirt
G1 X-2.295 Y23.219 E29.92657 ; skirt
G1 X-2.029 Y22.791 E29.96011 ; skirt
G1 X4.072 Y13.610 E30.69333 ; skirt
G1 X4.664 Y12.758 E30.76239 ; skirt
G1 X5.434 Y11.743 E30.84711 ; skirt
G1 X6.265 Y10.745 E30.93349 ; skirt
G1 X7.226 Y9.697 E31.02814 ; skirt
G1 X8.147 Y8.784 E31.11437 ; skirt
G1 X8.464 Y9.035 F6000.000 ; move to first skirt point
G1 X9.207 Y8.360 E31.18112 F1680.000 ; skirt
G1 X9.994 Y7.696 E31.24964 ; skirt
G1 X10.805 Y7.062 E31.31809 ; skirt
G1 X11.471 Y6.576 E31.37295 ; skirt
G1 X21.863 Y-0.440 E32.20702 ; skirt
G1 X22.449 Y-0.762 E32.25146 ; skirt
G1 X23.585 Y-1.182 E32.33204 ; skirt
G1 X24.211 Y-1.324 E32.37478 ; skirt
G1 X24.918 Y-1.442 E32.42245 ; skirt
G1 X25.599 Y-1.510 E32.46797 ; skirt
G1 X26.218 Y-1.530 E32.50913 ; skirt
G1 X26.704 Y-1.516 E32.54151 F1680.000 ; skirt
G1 X27.340 Y-1.457 E32.58398 ; skirt
G1 X27.751 Y-1.393 E32.61167 ; skirt
G1 X28.344 Y-1.262 E32.65206 ; skirt
G1 X28.729 Y-1.151 E32.67870 ; skirt
G1 X29.279 Y-0.955 E32.71756 ; skirt
G1 X29.807 Y-0.721 E32.75598 ; skirt
G1 X30.305 Y-0.454 E32.79354 ; skirt
G1 X40.120 Y5.589 E33.56025 ; skirt
G1 X40.759 Y6.000 E33.61081 ; skirt
G1 X41.796 Y6.725 E33.69497 ; skirt
G1 X42.801 Y7.502 E33.77950 ; skirt
G1 X43.771 Y8.331 E33.86436 ; skirt
G1 X44.522 Y9.029 E33.93260 ; skirt
G1 X45.070 Y9.573 E33.98392 ; skirt
G1 X45.745 Y10.286 E34.04925 ; skirt
G1 X46.833 Y11.549 E34.16013 ; skirt
G1 X47.388 Y12.257 E34.21997 ; skirt
G1 X47.889 Y12.943 E34.27649 ; skirt
G1 X48.369 Y13.648 E34.33322 ; skirt
G1 X48.821 Y14.364 E34.38954 ; skirt
G1 X49.239 Y15.076 E34.44447 ; skirt
G1 X54.115 Y23.705 E35.10380 ; skirt
G1 X54.380 Y24.248 E35.14394 ; skirt
G1 X54.623 Y24.853 E35.18732 ; skirt
G1 X54.827 Y25.492 E35.23196 ; skirt
G1 X54.984 Y26.140 E35.27627 ; skirt
G1 X55.117 Y26.942 E35.33037 ; skirt
G1 X55.203 Y27.908 E35.39492 ; skirt
G1 X55.223 Y28.899 E35.46080 ; skirt
G1 X55.178 Y29.920 E35.52883 ; skirt
G1 X55.069 Y30.890 E35.59375 ; skirt
G1 X54.891 Y31.885 E35.66096 ; skirt
G1 X54.649 Y32.861 E35.72789 ; skirt
G1 X54.344 Y33.817 E35.79464 ; skirt
G1 X43.617 Y63.094 E37.86873 ; skirt
G1 X43.362 Y63.653 E37.90961 ; skirt
G1 X43.045 Y64.222 E37.95296 ; skirt
G1 X42.762 Y64.650 E37.98711 ; skirt
G1 X42.350 Y65.173 E38.03138 ; skirt
G1 X41.926 Y65.623 E38.07251 ; skirt
G1 X41.578 Y65.938 E38.10369 ; skirt
G1 X41.183 Y66.247 E38.13710 ; skirt
G1 X40.630 Y66.609 E38.18107 ; skirt
G1 X40.336 Y66.771 E38.20341 ; skirt
G1 X39.880 Y66.987 E38.23698 ; skirt
G1 X39.549 Y67.118 E38.26064 ; skirt
G1 X39.078 Y67.271 E38.29358 ; skirt
G1 X38.584 Y67.391 E38.32740 ; skirt
G1 X38.249 Y67.450 E38.35003 ; skirt
G1 X37.465 Y67.522 E38.40239 ; skirt
G1 X14.848 Y67.529 E39.90687 ; skirt
G1 X14.234 Y67.500 E39.94779 ; skirt
G1 X13.436 Y67.377 E40.00148 ; skirt
G1 X13.035 Y67.276 E40.02896 ; skirt
G1 X12.612 Y67.138 E40.05857 ; skirt
G1 X12.241 Y66.988 E40.08523 ; skirt
G1 X11.841 Y66.793 E40.11478 ; skirt
G1 X11.153 Y66.371 E40.16848 ; skirt
G1 X10.532 Y65.879 E40.22118 ; skirt
G1 X9.957 Y65.307 E40.27515 ; skirt
G1 X9.611 Y64.893 E40.31103 ; skirt
G1 X9.382 Y64.584 E40.33661 ; skirt
G1 X8.952 Y63.897 E40.39051 ; skirt
G1 X8.694 Y63.394 E40.42816 ; skirt
G1 X8.441 Y62.791 E40.47162 ; skirt
G1 X-2.369 Y33.700 E42.53604 ; skirt
G1 X-2.570 Y33.085 E42.57911 ; skirt
G1 X-2.745 Y32.463 E42.62210 ; skirt
G1 X-2.894 Y31.834 E42.66507 ; skirt
G1 X-3.009 Y31.239 E42.70541 ; skirt
G1 X-3.164 Y30.053 E42.78497 ; skirt
G1 X-3.223 Y28.867 E42.86392 ; skirt
G1 X-3.210 Y28.046 E42.91859 ; skirt
G1 X-3.149 Y27.224 E42.97337 ; skirt
G1 X-3.066 Y26.607 E43.01481 ; skirt
G1 X-2.907 Y25.821 E43.06813 ; skirt
G1 X-2.750 Y25.253 E43.10736 ; skirt
G1 X-2.527 Y24.617 E43.15220 ; skirt
G1 X-2.250 Y23.984 E43.19818 ; skirt
G1 X-1.949 Y23.419 E43.24071 ; skirt
G1 X-1.696 Y23.012 E43.27260 ; skirt
G1 X4.403 Y13.834 E44.00567 ; skirt
G1 X4.988 Y12.994 E44.07375 ; skirt
G1 X5.746 Y11.993 E44.15727 ; skirt
G1 X6.565 Y11.009 E44.24243 ; skirt
G1 X7.515 Y9.974 E44.33589 ; skirt
G1 X8.421 Y9.076 E44.42070 ; skirt
G1 X9.559 Y10.202 F6000.000 ; move to first brim point
G1 X10.683 Y9.202 E44.52078 F1680.000 ; brim
G1 X11.757 Y8.348 E44.61201 ; brim
G1 X13.013 Y7.460 E44.71436 ; brim
G1 X14.168 Y6.739 E44.80492 ; brim
G1 X15.204 Y6.163 E44.88380 ; brim
G1 X16.257 Y5.642 E44.96190 ; brim
G1 X19.023 Y4.433 E45.16271 ; brim
G1 X19.896 Y4.101 E45.22485 ; brim
G1 X20.014 Y3.997 E45.23534 ; brim
G1 X20.324 Y3.407 E45.27964 ; brim
G1 X20.633 Y2.905 E45.31887 ; brim
G1 X20.910 Y2.520 E45.35037 ; brim
G1 X21.173 Y2.201 E45.37788 ; brim
G1 X21.540 Y1.814 E45.41339 ; brim
G1 X21.894 Y1.497 E45.44498 ; brim
G1 X22.250 Y1.221 E45.47497 ; brim
G1 X22.671 Y0.942 E45.50853 ; brim
G1 X23.351 Y0.575 E45.55995 ; brim
G1 X23.736 Y0.431 E45.58727 ; brim
G1 X24.072 Y0.346 E45.61033 ; brim
G1 X24.630 Y0.225 E45.64833 ; brim
G1 X25.201 Y0.135 E45.68677 ; brim
G1 X25.687 Y0.088 E45.71930 ; brim
G1 X26.212 Y0.070 E45.75420 ; brim
G1 X26.715 Y0.088 E45.78769 F1680.000 ; brim
G1 X27.101 Y0.125 E45.81352 ; brim
G1 X27.550 Y0.197 E45.84377 ; brim
G1 X27.912 Y0.279 E45.86845 ; brim
G1 X28.326 Y0.399 E45.89711 ; brim
G1 X28.754 Y0.558 E45.92749 ; brim
G1 X29.078 Y0.704 E45.95109 ; brim
G1 X29.470 Y0.912 E45.98063 ; brim
G1 X29.917 Y1.197 E46.01587 ; brim
G1 X30.269 Y1.464 E46.04528 ; brim
G1 X30.601 Y1.758 E46.07480 ; brim
G1 X30.926 Y2.092 E46.10575 ; brim
G1 X31.266 Y2.504 E46.14128 ; brim
G1 X31.544 Y2.897 E46.17335 ; brim
G1 X31.825 Y3.352 E46.20891 ; brim
G1 X32.139 Y3.916 E46.25185 ; brim
G1 X32.276 Y4.020 E46.26330 ; brim
G1 X32.929 Y4.182 E46.30804 ; brim
G1 X33.729 Y4.413 E46.36346 ; brim
G1 X34.400 Y4.631 E46.41038 ; brim
G1 X35.264 Y4.946 E46.47158 ; brim
G1 X36.117 Y5.294 E46.53285 ; brim
G1 X36.777 Y5.591 E46.58099 ; brim
G1 X37.605 Y5.999 E46.64236 ; brim
G1 X38.229 Y6.332 E46.68943 ; brim
G1 X39.464 Y7.066 E46.78497 ; brim
G1 X40.238 Y7.579 E46.84675 ; brim
G1 X40.835 Y8.004 E46.89550 ; brim
G1 X41.578 Y8.572 E46.95774 ; brim
G1 X42.148 Y9.039 E47.00677 ; brim
G1 X42.858 Y9.662 E47.06956 ; brim
G1 X43.400 Y10.170 E47.11897 ; brim
G1 X44.545 Y11.344 E47.22809 ; brim
G1 X45.582 Y12.546 E47.33366 ; brim
G1 X46.095 Y13.200 E47.38894 ; brim
G1 X46.566 Y13.844 E47.44205 ; brim
G1 X47.015 Y14.502 E47.49501 ; brim
G1 X47.440 Y15.173 E47.54786 ; brim
G1 X47.850 Y15.870 E47.60168 ; brim
G1 X48.314 Y16.731 E47.66673 ; brim
G1 X48.671 Y17.460 E47.72070 ; brim
G1 X49.071 Y18.357 E47.78608 ; brim
G1 X49.402 Y19.183 E47.84523 ; brim
G1 X49.707 Y20.024 E47.90475 ; brim
G1 X49.999 Y20.927 E47.96791 ; brim
G1 X50.244 Y21.777 E48.02676 ; brim
G1 X50.334 Y21.898 E48.03674 ; brim
G1 X50.928 Y22.310 E48.08485 ; brim
G1 X51.469 Y22.780 E48.13252 ; brim
G1 X51.895 Y23.249 E48.17469 ; brim
G1 X52.314 Y23.809 E48.22117 ; brim
G1 X52.679 Y24.412 E48.26811 ; brim
G1 X52.981 Y25.044 E48.31466 ; brim
G1 X53.224 Y25.715 E48.36213 ; brim
G1 X53.413 Y26.444 E48.41221 ; brim
G1 X53.556 Y27.362 E48.47404 ; brim
G1 X53.620 Y28.365 E48.54088 ; brim
G1 X53.609 Y29.389 E48.60905 ; brim
G1 X53.512 Y30.472 E48.68135 ; brim
G1 X53.360 Y31.386 E48.74300 ; brim
G1 X53.114 Y32.410 E48.81301 ; brim
G1 X52.791 Y33.408 E48.88283 ; brim
G1 X52.395 Y34.379 E48.95256 ; brim
G1 X52.136 Y34.922 E48.99257 ; brim
G1 X51.792 Y35.564 E49.04105 ; brim
G1 X51.473 Y36.097 E49.08236 ; brim
